images/icons/credit.svg

<svg width="72" height="71" viewBox="0 0 72 71" fill="none" xmlns="http://www.w3.org/2000/svg">
<path d="M57.2401 5.35172V6.10955L39.0312 0.359582C37.958 0.0193387 36.8231 -0.0811095 35.7068 0.0653322C34.5904 0.211774 33.5198 0.601534 32.5707 1.20708L25.035 6.00256C24.1099 6.58833 23.3211 7.3655 22.7216 8.28173C22.1221 9.19796 21.7259 10.232 21.5596 11.3142H4.77008C4.45381 11.3142 4.15049 11.4399 3.92685 11.6635C3.70322 11.8871 3.57758 12.1904 3.57758 12.5067V38.7417C3.57758 39.058 3.70322 39.3613 3.92685 39.5849C4.15049 39.8086 4.45381 39.9342 4.77008 39.9342H54.8551C55.1713 39.9342 55.4746 39.8086 55.6983 39.5849C55.9219 39.3613 56.0476 39.058 56.0476 38.7417V26.006C56.208 25.8852 56.3656 25.7588 56.5185 25.6242H57.2401V28.0092C57.2401 28.3255 57.3657 28.6288 57.5893 28.8524C57.813 29.0761 58.1163 29.2017 58.4326 29.2017H71.5501V26.8167H59.6251V6.54422H71.5501V4.15922H58.4326C58.1163 4.15922 57.813 4.28486 57.5893 4.5085C57.3657 4.73213 57.2401 5.03545 57.2401 5.35172ZM38.4489 31.5867C38.9227 31.5865 39.395 31.5328 39.8567 31.4267C38.2809 33.1101 37.2913 35.2576 37.0354 37.5492H31.0051V13.6992H31.908C32.6728 13.6992 33.4204 13.926 34.0563 14.3509C34.6922 14.7758 35.1878 15.3798 35.4805 16.0863C35.7731 16.7929 35.8497 17.5704 35.7005 18.3205C35.5512 19.0706 35.1829 19.7596 34.6421 20.3003L34.0282 20.914C33.1539 21.7884 32.5584 22.9024 32.3171 24.1151C32.0759 25.3279 32.1997 26.5849 32.6729 27.7273C33.1461 28.8697 33.9474 29.8462 34.9755 30.5331C36.0037 31.2201 37.2124 31.5867 38.4489 31.5867ZM46.5076 28.0771C45.6264 28.1747 44.761 28.382 43.9312 28.6941L46.5076 26.1178V28.0771ZM46.5076 30.4808V37.5492H39.4391C39.6993 35.767 40.5277 34.1165 41.8013 32.8429C43.0748 31.5694 44.7254 30.7409 46.5076 30.4808ZM28.6201 37.5492H23.8501V13.6992H28.6201V37.5492ZM21.4651 37.5492H15.4347C15.1608 35.1314 14.0748 32.8781 12.3543 31.1575C10.6337 29.4369 8.38036 28.351 5.96257 28.0771V23.1714C8.38036 22.8975 10.6337 21.8115 12.3543 20.0909C14.0748 18.3704 15.1608 16.117 15.4347 13.6992H21.4651V37.5492ZM13.031 13.6992C12.7709 15.4814 11.9424 17.132 10.6689 18.4055C9.39533 19.6791 7.74474 20.5075 5.96257 20.7677V13.6992H13.031ZM5.96257 30.4808C7.74474 30.7409 9.39533 31.5694 10.6689 32.8429C11.9424 34.1165 12.7709 35.767 13.031 37.5492H5.96257V30.4808ZM53.6626 37.5492H48.8926V27.2307C50.4455 27.7162 52.1096 27.7162 53.6626 27.2306V37.5492ZM56.0473 23.2394C55.7311 23.2394 55.4278 23.365 55.2042 23.5886C54.1619 24.6285 52.7496 25.2124 51.2773 25.2124C49.805 25.2124 48.3928 24.6283 47.3505 23.5884C47.1268 23.3649 46.8235 23.2393 46.5073 23.2393C46.191 23.2393 45.8878 23.3649 45.6641 23.5884L41.1831 28.0692C40.8241 28.4287 40.3978 28.7139 39.9286 28.9086C39.4593 29.1033 38.9563 29.2035 38.4482 29.2037C37.9402 29.2039 37.4371 29.104 36.9677 28.9096C36.4983 28.7153 36.0718 28.4304 35.7126 28.0711C35.3533 27.7119 35.0684 27.2854 34.8741 26.816C34.6798 26.3466 34.5798 25.8435 34.58 25.3354C34.5802 24.8274 34.6805 24.3244 34.8752 23.8551C35.0699 23.3859 35.3551 22.9596 35.7146 22.6006L36.3285 21.9869H36.3285C37.2029 21.1126 37.7984 19.9986 38.0396 18.7859C38.2809 17.5731 38.1571 16.3161 37.6839 15.1737C37.2108 14.0313 36.4095 13.0549 35.3814 12.3679C34.3533 11.6809 33.1445 11.3142 31.908 11.3142H23.9829C24.2939 9.94936 25.1325 8.76308 26.3154 8.01461L33.8511 3.21914C34.5066 2.80094 35.246 2.53178 36.017 2.43067C36.788 2.32955 37.5718 2.39895 38.313 2.63395L57.2401 8.61071V23.2394H56.0473Z" fill="#63A63E"/>
<path d="M7.155 69.7467V68.5542H10.7325C11.0488 68.5542 11.3521 68.4285 11.5757 68.2049C11.7994 67.9813 11.925 67.6779 11.925 67.3617V66.1014L12.0377 66.182C16.9573 69.6959 22.9639 71.3508 28.989 70.8522C35.0141 70.3535 40.6669 67.7337 44.9419 63.4588L53.9095 54.4912C54.8633 53.5376 55.4263 52.2621 55.4882 50.9148C55.5501 49.5675 55.1063 48.2457 54.2439 47.2087C53.3815 46.1717 52.1627 45.4944 50.8267 45.3096C49.4907 45.1248 48.1339 45.4459 47.0224 46.2099C46.701 45.5165 46.2103 44.915 45.5954 44.461C44.9806 44.007 44.2613 43.7151 43.504 43.6121C42.7466 43.5091 41.9755 43.5984 41.2617 43.8717C40.548 44.145 39.9144 44.5936 39.4196 45.1761C38.7967 44.803 38.0951 44.581 37.371 44.5278C36.6469 44.4746 35.9203 44.5918 35.2496 44.8699C34.5789 45.148 33.9827 45.5793 33.5087 46.1293C33.0347 46.6793 32.6961 47.3327 32.52 48.0371L31.2664 53.0517H24.344L23.5007 52.2084C22.0083 50.7165 20.0671 49.7561 17.9756 49.4751C15.8842 49.194 13.7583 49.6078 11.925 50.6529V49.4742C11.925 49.1579 11.7994 48.8546 11.5757 48.631C11.3521 48.4073 11.0488 48.2817 10.7325 48.2817H7.155C7.155 47.9654 7.02936 47.6621 6.80572 47.4385C6.58208 47.2148 6.27877 47.0892 5.9625 47.0892H0V49.4742H4.77V68.5542H0V70.9392H5.9625C6.27877 70.9392 6.58208 70.8135 6.80572 70.5899C7.02936 70.3663 7.155 70.0629 7.155 69.7467ZM42.3646 46.0201C42.6778 45.9418 43.0045 45.9344 43.3209 45.9983C43.6374 46.0623 43.9356 46.196 44.1938 46.3897C44.452 46.5835 44.6637 46.8324 44.8136 47.1184C44.9634 47.4044 45.0476 47.7201 45.0599 48.0427L36.7388 56.3638C36.6001 55.9326 36.4005 55.5234 36.146 55.1486L41.0296 47.0094C41.1757 46.7644 41.3689 46.5509 41.598 46.3811C41.8272 46.2113 42.0877 46.0886 42.3646 46.0201ZM34.8338 48.6156C34.9095 48.3128 35.047 48.029 35.2375 47.7818C35.4281 47.5347 35.6677 47.3296 35.9413 47.1794C36.2149 47.0293 36.5165 46.9372 36.8274 46.9092C37.1382 46.8811 37.4515 46.9175 37.7475 47.0162C37.8834 47.0618 38.0147 47.1201 38.1396 47.1903L34.3221 53.5528C34.1107 53.447 33.8916 53.3572 33.6667 53.2842L34.8338 48.6156ZM16.695 51.7743C17.6461 51.7717 18.5883 51.9578 19.4671 52.3218C20.3458 52.6858 21.1436 53.2205 21.8143 53.895L23.0068 55.0875C23.2304 55.3111 23.5337 55.4367 23.85 55.4367H32.1975C32.83 55.4367 33.4367 55.6879 33.8839 56.1352C34.3312 56.5825 34.5825 57.1891 34.5825 57.8217C34.5825 58.4542 34.3312 59.0609 33.8839 59.5081C33.4367 59.9554 32.83 60.2067 32.1975 60.2067H21.465V62.5917H32.1975C33.06 62.591 33.9062 62.3567 34.6462 61.9136C35.3862 61.4706 35.9923 60.8353 36.4002 60.0754L47.947 48.5287C48.5141 47.9622 49.283 47.6441 50.0846 47.6444C50.8862 47.6446 51.6549 47.9631 52.2217 48.5299C52.7885 49.0967 53.1071 49.8654 53.1073 50.667C53.1076 51.4686 52.7895 52.2375 52.223 52.8046L43.2555 61.7723C39.3797 65.648 34.2548 68.0232 28.7923 68.4753C23.3299 68.9274 17.8842 67.4271 13.424 64.2413L11.925 63.1705V53.57C13.2421 52.4087 14.939 51.7699 16.695 51.7743ZM9.54 50.6667V66.1692H7.155V50.6667H9.54Z" fill="#63A63E"/>
</svg>

<svg width="72" height="71" viewBox="0 0 72 71" fill="none" xmlns="http://www.w3.org/2000/svg"><path d="M57.24 5.352v.758L39.031.36a7.69 7.69 0 0 0-6.46.847l-7.536 4.796a7.665 7.665 0 0 0-3.475 5.311H4.77a1.193 1.193 0 0 0-1.192 1.193v26.235a1.192 1.192 0 0 0 1.192 1.192h50.085a1.192 1.192 0 0 0 1.193-1.192V26.006c.16-.12.318-.247.47-.382h.722v2.385a1.192 1.192 0 0 0 1.193 1.193H71.55v-2.385H59.625V6.544H71.55V4.16H58.433a1.193 1.193 0 0 0-1.193 1.193ZM38.45 31.587c.474 0 .946-.054 1.408-.16a10.696 10.696 0 0 0-2.822 6.122h-6.03V13.7h.903a3.867 3.867 0 0 1 2.734 6.601l-.614.614a6.253 6.253 0 0 0 4.42 10.673Zm8.059-3.51c-.882.098-1.747.305-2.577.617l2.577-2.576v1.96Zm0 2.404v7.068h-7.069a8.364 8.364 0 0 1 7.069-7.068ZM28.62 37.549h-4.77V13.7h4.77v23.85Zm-7.155 0h-6.03a10.751 10.751 0 0 0-9.472-9.472v-4.906a10.75 10.75 0 0 0 9.472-9.472h6.03v23.85ZM13.031 13.7a8.364 8.364 0 0 1-7.068 7.069v-7.069h7.068ZM5.963 30.481a8.364 8.364 0 0 1 7.068 7.068H5.963v-7.068Zm47.7 7.068h-4.77V27.231a7.992 7.992 0 0 0 4.77 0v10.318Zm2.384-14.31c-.316 0-.62.126-.843.35a5.56 5.56 0 0 1-7.854 0 1.193 1.193 0 0 0-1.686 0l-4.48 4.48a3.868 3.868 0 1 1-5.47-5.468l.614-.614a6.251 6.251 0 0 0-4.42-10.673h-7.925a5.297 5.297 0 0 1 2.332-3.3l7.536-4.795a5.311 5.311 0 0 1 4.462-.585L57.24 8.611v14.628h-1.193ZM7.155 69.747v-1.193h3.577a1.193 1.193 0 0 0 1.193-1.192v-1.26l.113.08a25.54 25.54 0 0 0 32.904-2.723l8.968-8.968a5.408 5.408 0 0 0-6.888-8.281 4.555 4.555 0 0 0-7.602-1.034 4.65 4.65 0 0 0-6.9 2.861l-1.254 5.015h-6.922l-.843-.844a9.629 9.629 0 0 0-11.576-1.555v-1.179a1.192 1.192 0 0 0-1.193-1.192H7.155a1.192 1.192 0 0 0-1.192-1.193H0v2.385h4.77v19.08H0v2.385h5.963a1.193 1.193 0 0 0 1.192-1.192Zm35.21-23.727a2.171 2.171 0 0 1 2.695 2.023l-8.321 8.32a4.755 4.755 0 0 0-.593-1.214l4.884-8.14a2.157 2.157 0 0 1 1.335-.989Zm-7.531 2.596a2.267 2.267 0 0 1 3.306-1.426l-3.818 6.363a4.721 4.721 0 0 0-.655-.269l1.167-4.668Zm-18.139 3.158a7.193 7.193 0 0 1 5.12 2.121l1.192 1.192c.223.224.527.35.843.35h8.347a2.385 2.385 0 1 1 0 4.77H21.465v2.385h10.732a4.774 4.774 0 0 0 4.203-2.517L47.947 48.53a3.023 3.023 0 0 1 4.276 4.276l-8.968 8.967a23.155 23.155 0 0 1-29.831 2.47l-1.499-1.072v-9.6a7.185 7.185 0 0 1 4.77-1.796ZM9.54 50.667v15.502H7.155V50.667H9.54Z" fill="#63A63E"/></svg>
